X:1
T:California Grand March
T:California Grand March
T:To Col. Stevenson by A Lady of Pittsburgh 
T:Anonymous
T:Public Domain - https://imslp.org/wiki/California_Grand_March_(Anonymous)
T:Public Domain - https://imslp.org/wiki/California_Grand_March_(Anonymous)
T:Public Domain - https://imslp.org/wiki/California_Grand_March_(Anonymous)
C:Anonymous
Z:Public Domain - https://imslp.org/wiki/California_Grand_March_(Anonymous)
%%score { 1 | 2 }
L:1/8
M:4/4
K:D
V:1 treble nm="Piano" snm="Pno."
V:2 bass 
V:1
 (3A,/B,/C/ | [F,A,D]2 z (3a/b/c'/ [fad']2 z (3A,/B,/C/ | [F,D]>C[F,D]>E [F,D]2 z (3F,/^G,/^A,/ | %3
 [F,B,]2 z (3f/^g/^a/ [dfd']2 z (3F,/G,/A,/ | [D,B,]>^A,[D,B,]>C [D,B,]2 [E,C]2 | %5
 [F,D] A,/A,/ A, A [DF] A [A,C] E | [F,D] A,/A,/ A, A [DF] A [A,C] E | %7
 [F,D] A,/A,/ A,[G,A,C] [F,D] A,/A,/ A, [G,A,C] | [F,D]2 [F,D]2{C} [F,D]2 z (3A/B/c/ || %9
 [Fd]2 [Ge]c/ [Fd]2 z3/2 (3A/B/c/ | [Fd]2 [Ge]c/ [Fd]2 z3/2 (3A/B/c/ | [Fd]2 [=F^GBd]2 [EGBd]2 cB | %12
 [CA]>^G[CA]>B [CA]2 z (3E/F/G/ | [CA]2 [DB]>^G [CA]2 z (3E/F/G/ | [CA]2 [DB]>^G [CA]2 z (3E/F/G/ | %15
 AAce E2 [DF]^G | [CA]>^G[CA]>B A=GFE ||!f! D2 F>E D2 [FA]>[EG] | [DF]2 [DFd]>c [DFd]2 [DF]2 | %19
 [A,C]2 [CE]>[B,D] [A,C]2 [CE]>[DF] | [A,CEG]2 [^A,CEG]2 [=A,CEG]2 z2 | D2 F>E D2 [FA]>[EG] | %22
 [DF]2 [DFd]>c [DFd]2 [DF]2 | [A,C]E z (3F/E/^D/ EA z B | [Ec]2 [EB]2 [CA]2 z2 |: %25
!ped!{=f} [Af]2 z2{f} [Af]2 z2 |{=f} [Af] g/f/ e/d/c/B/ A2 z2!ped-up! | %27
!ff!!ped!{f'} [gg']2 z2{^d'} [ge']2 z2!ped-up! |{=c'} [cc']2 z2{^g} [Aa]2 z2 | %29
!ped!{=f} [Af]2 z2{f} [Af]2 z2 |{=f} [Af] g/f/ e/d/c/B/ A2 z2!ped-up! | %31
!ped! a2 z/ g/f/e/ d/c/B/A/ G/A/B/c/!ped-up! | [Fd]2 [Af]3/2 [Ge]/ [Fd]2 z [GB] :| %33
 [FA]D z [GB] [FA]D z [Bd] | [Ac][GB] z [GB] [FA]D z [FA] | [EGA]C z [CEGA] [DFA]A z d | %36
 [GB]e z [^GBe] [Ace][Ace] z [GB] | [FA]D z [GB] [FA]D z [Bd] | [Ac][GB] z [GB] [FA]D z [FA] | %39
 [EGA]C z [CE] [DF]d z [FA] | [GB]e z [GAc] [FAd][FAd] z2 || [Ec]2 (3ABc [Fd]2 [FA]2 | %42
 [CE]2 (3[CA]^G=G [DF]2 A2 | [Ec]2 (3[GA]Bc [Fd]2 [FA]2 | [EGA]2 (3[Ac]^G=G [Fd]2 (3[Ge]dc | %45
 [Fd] C/C/ CA [DF]A A,C | [Fd] C/C/ CA [DF]A A,C | [F,D] A,/A,/ A,[G,A,C] [F,D] A,/A,/ A, [G,A,C] | %48
 [F,D]2 z2{c'} [dd']2 z2 |{[G,C]} [F,D]2 z2 z4 |] %50
V:2
 z | [D,,D,]2 z2 [D,D]2 z2 | [D,,D,]>C,D,>[C,E,] [D,,D,]2 z2 | [D,,D,]2 z2 [B,,B,]2 z2 | %4
 [B,,,B,,]>^A,,[B,,,B,,]>C, [B,,,B,,]2 [A,,,A,,]2 | [D,,D,]2 z2 [D,,D,]2 [A,,,A,,]2 | %6
 [D,,D,]2 z2 [D,,D,]2 [A,,,A,,]2 | [D,,D,]2 z [A,,,A,,] [D,,D,]2 z [A,,,A,,] | %8
 [D,,D,]2 [D,,D,]2 [D,,D,]2 z2 || [D,,D,]2 [A,,,A,,]2 [D,,D,]2 z2 | %10
 [D,,D,]2 [A,,,A,,]2 [D,,D,]2 z2 | [D,,D,]2 [B,,B,]2 [G,,^G,]2 [E,,E,]2 | %12
 [A,,A,]2 [A,,A,]2 [A,,A,]2 z2 | [A,,,A,,]2 [E,,E,]2 [A,,A,]2 z2 | %14
 [A,,,A,,]2 [E,,E,]2 [A,,A,]2 z2 | [A,,A,]4 [E,,E,]4 | %16
 [A,,,A,,]2 [A,,A,]2 [A,,A,][G,,G,][F,,F,][E,,E,] || [D,,F,]2 [F,,F,]2 [D,,D,]2 [F,,F,]2 | %18
 [D,,D,]2 [F,,F,]2 [D,,D,]2 [F,,F,]2 | [A,,,A,,]2 [E,,C,]2 [A,,,A,,]2 [E,,C,]2 | %20
 [A,,,A,,]2 [^A,,,^A,,]2 [=A,,,=A,,]2 z2 | [D,,D,]2 [F,,F,]2 [D,,D,]2 [F,,F,]2 | %22
 [D,,D,]2 [F,,F,]2 [D,,D,]2 [F,,F,]2 | [A,,,A,,]2 [C,,C,]2 [E,,E,]2 [A,,A,]2 | %24
 E,2 E,,2 [A,,,A,,]2 z2 |: [D,,D,]2 [A,DF]2 [A,DF]2 [A,DF]2 | [A,DF]2 [A,DF]2 [A,DF]2 [A,DF]2 | %27
 [A,,A,]2 [A,CEG]2 [A,CEG]2 [A,CEG]2 | [A,CEG]2 [A,CEG]2 [A,CEG]2 [A,CEG]2 | %29
 [D,,D,]2 [A,DF]2 [A,DF]2 [A,DF]2 | [A,DF]2 [A,DF]2 [A,DF]2 [A,DF]2 | [A,,,A,,]2 A,2 [A,CEG]2 A,2 | %32
 [A,DF]2 [A,DF]2 [A,DF]2 z2 :| [D,,D,]2 [D,F,A,]2 [D,,D,]2 [D,F,A,]2 | %34
 [G,,G,]2 [D,G,B,]2 [D,,D,]2 [D,F,A,]2 | [A,,,A,,]2 [C,,C,]2 [D,,D,]2 [F,,F,]2 | %36
 [G,,G,]2 [^G,,^G,]2 [A,,A,]2 z2 | [D,,D,]2 [D,F,A,]2 [D,,D,]2 [D,F,A,]2 | %38
 [G,,G,]2 [D,G,B,]2 [D,,D,]2 [D,F,A,]2 | [A,,,A,,]2 [C,,C,]2 [D,,D,]2 [F,,F,]2 | %40
 [G,,G,]2 [A,,A,]2 [D,,D,]2 z2 || [A,,,A,,]2 [C,,C,]2 [D,,D,]2 [F,,F,]2 | A,2 A,,2 D,2 D,,2 | %43
 [A,,,A,,]2 [C,,C,]2 [D,,D,]2 [F,,F,]2 | A,2 A,,2 [D,,D,]2 [A,,,A,,]2 | %45
 [D,,D,]2 z2 [D,,D,]2 [A,,,A,,]2 | [D,,D,]2 z2 [D,,D,]2 [A,,,B,,]2 | %47
 [D,,D,]2 z [A,,,A,,] [D,,D,]2 z [A,,,A,,] | [D,,D,]2 z2 [D,D]2 z2 | %49
"_G. W. Ackerman Eng & Pinter:" [D,,D,]2 z2 z4 |] %50

